assets/symbols/mulberry/castle.svg

<svg height="850.394" viewBox="0 0 850.394 850.394" width="850.394" xmlns="http://www.w3.org/2000/svg"><path d="m161.19 355.9h41.32v80.46h-41.32zm0-132.65h41.32v80.46h-41.32zm237.39 67.05h41.31v80.46h-41.31zm236.28 65.88h41.319v80.45h-41.319zm0-132.65h41.319v80.46h-41.319z" fill="#fff"/><path d="m514.52 532.86c0-20.341-10.67-38.75-27.92-52.091-17.239-13.329-41.06-21.579-67.359-21.579-52.61 0-95.28 33-95.28 73.67l.039 163.14v.57h-222.13v-550.15h58.6v32.62h43.49v-32.62h56.54v100.03h78.28v-98.58l159.82.27v98.58h78.28v-100.02h56.54v32.61h43.49v-32.61h58.59v550.16h-221.5v-.86zm161.66-96.23v-80.45h-41.32v80.45zm0-132.64v-80.46h-41.32v80.46zm-236.29 66.77v-80.46h-41.31v80.46zm-237.38 65.6v-80.46h-41.32v80.46zm0-132.65v-80.46h-41.32v80.46z" fill="#c8c8c8"/><path d="m323.96 532.86c0-40.67 42.67-73.67 95.28-73.67 26.3 0 50.12 8.25 67.359 21.579 17.25 13.341 27.92 31.75 27.92 52.091l-.519 163.14v.86h-95.86v-.29h-94.14v-.57z" fill="#9c5b16"/><g fill="none"><g stroke="#231f20" stroke-width="28"><path d="m161.19 223.25h41.32v80.46h-41.32zm0 132.65h41.32v80.46h-41.32zm237.39-65.6h41.31v80.46h-41.31zm-74.58 405.7-.04-163.14c0-40.67 42.67-73.67 95.28-73.67 26.3 0 50.12 8.25 67.359 21.579 17.25 13.341 27.92 31.75 27.92 52.091l-.519 163.14m120.86-472.47h41.319v80.46h-41.319zm0 132.65h41.319v80.45h-41.319z"/><path d="m418.14 696.86h317.36v-550.16h-58.59v32.61h-43.49v-32.61h-56.54v100.02h-78.28v-98.58l-159.82-.27v98.58h-78.28v-100.03h-56.54v32.62h-43.49v-32.62h-58.6v550.15h317.37"/></g><path d="m0 0h850.394v850.394h-850.394z"/></g></svg>

<svg xmlns="http://www.w3.org/2000/svg" width="850.394" height="850.394" viewBox="0 0 850.394 850.394" overflow="visible"><path fill="#fff" d="M161.19 355.9h41.32v80.46h-41.32zM161.19 223.25h41.32v80.46h-41.32zM398.58 290.3h41.31v80.46h-41.31zM634.86 356.18h41.319v80.45H634.86zM634.86 223.53h41.319v80.46H634.86z"/><path d="M514.52 532.86c0-20.341-10.67-38.75-27.92-52.091-17.239-13.329-41.06-21.579-67.359-21.579-52.61 0-95.28 33-95.28 73.67L324 696v.57H101.87V146.42h58.6v32.62h43.49v-32.62h56.54v100.03h78.28v-98.58l159.82.27v98.58h78.28V146.7h56.54v32.61h43.49V146.7h58.59v550.16H514V696l.52-163.14zm161.66-96.23v-80.45h-41.32v80.45h41.32zm0-132.64v-80.46h-41.32v80.46h41.32zm-236.29 66.77V290.3h-41.31v80.46h41.31zm-237.38 65.6V355.9h-41.32v80.46h41.32zm0-132.65v-80.46h-41.32v80.46h41.32z" fill="#c8c8c8"/><path d="M323.96 532.86c0-40.67 42.67-73.67 95.28-73.67 26.3 0 50.12 8.25 67.359 21.579 17.25 13.341 27.92 31.75 27.92 52.091L514 696v.86h-95.86v-.29H324V696l-.04-163.14z" fill="#9c5b16"/><g fill="none" stroke="#231f20" stroke-width="28"><path d="M161.19 223.25h41.32v80.46h-41.32zM161.19 355.9h41.32v80.46h-41.32zM398.58 290.3h41.31v80.46h-41.31zM324 696l-.04-163.14c0-40.67 42.67-73.67 95.28-73.67 26.3 0 50.12 8.25 67.359 21.579 17.25 13.341 27.92 31.75 27.92 52.091L514 696M634.86 223.53h41.319v80.46H634.86zM634.86 356.18h41.319v80.45H634.86z"/><path d="M418.14 696.86H735.5V146.7h-58.59v32.61h-43.49V146.7h-56.54v100.02H498.6v-98.58l-159.82-.27v98.58H260.5V146.42h-56.54v32.62h-43.49v-32.62h-58.6v550.15h317.37"/></g><path fill="none" d="M0 0h850.394v850.394H0z"/></svg>
